germany/municipalities/07232260.svg

<?xml version="1.0" encoding="UTF-8" standalone="no"?>
<!-- Created with Inkscape (http://www.inkscape.org/) -->

<svg
   xmlns:dc="http://purl.org/dc/elements/1.1/"
   xmlns:cc="http://creativecommons.org/ns#"
   xmlns:rdf="http://www.w3.org/1999/02/22-rdf-syntax-ns#"
   xmlns:svg="http://www.w3.org/2000/svg"
   xmlns="http://www.w3.org/2000/svg"
   xmlns:sodipodi="http://sodipodi.sourceforge.net/DTD/sodipodi-0.dtd"
   xmlns:inkscape="http://www.inkscape.org/namespaces/inkscape"
   width="190.9445mm"
   height="209.14957mm"
   viewBox="0 0 190.9445 209.14957"
   version="1.1"
   id="svg2670"
   inkscape:version="0.92.4 (5da689c313, 2019-01-14)"
   sodipodi:docname="DEU Lichtenborn COA.svg">
  <defs
     id="defs2664">
    <inkscape:path-effect
       effect="spiro"
       id="path-effect3579"
       is_visible="true" />
    <inkscape:path-effect
       effect="spiro"
       id="path-effect3579-7"
       is_visible="true" />
    <inkscape:path-effect
       effect="spiro"
       id="path-effect3579-5"
       is_visible="true" />
    <inkscape:path-effect
       effect="spiro"
       id="path-effect3579-7-0"
       is_visible="true" />
    <inkscape:path-effect
       effect="spiro"
       id="path-effect3579-8"
       is_visible="true" />
    <inkscape:path-effect
       effect="spiro"
       id="path-effect3579-7-6"
       is_visible="true" />
  </defs>
  <sodipodi:namedview
     id="base"
     pagecolor="#ffffff"
     bordercolor="#666666"
     borderopacity="1.0"
     inkscape:pageopacity="0.0"
     inkscape:pageshadow="2"
     inkscape:zoom="0.69324393"
     inkscape:cx="360.84001"
     inkscape:cy="395.24328"
     inkscape:document-units="mm"
     inkscape:current-layer="layer1"
     showgrid="false"
     inkscape:window-width="1366"
     inkscape:window-height="745"
     inkscape:window-x="-8"
     inkscape:window-y="-8"
     inkscape:window-maximized="1"
     fit-margin-top="0"
     fit-margin-left="0"
     fit-margin-right="0"
     fit-margin-bottom="0"
     inkscape:snap-nodes="true"
     inkscape:snap-midpoints="true"
     inkscape:snap-smooth-nodes="true" />
  <metadata
     id="metadata2667">
    <rdf:RDF>
      <cc:Work
         rdf:about="">
        <dc:format>image/svg+xml</dc:format>
        <dc:type
           rdf:resource="http://purl.org/dc/dcmitype/StillImage" />
        <dc:title></dc:title>
      </cc:Work>
    </rdf:RDF>
  </metadata>
  <g
     inkscape:label="Ebene 1"
     inkscape:groupmode="layer"
     id="layer1"
     transform="translate(-4.436642,-21.020824)">
    <path
       style="fill:#ffffff;fill-rule:evenodd;stroke:none;stroke-width:2.91041636;stroke-linecap:round;stroke-linejoin:miter;stroke-miterlimit:4;stroke-dasharray:none;stroke-opacity:1"
       inkscape:connector-curvature="0"
       d="M 193.92061,22.476034 193.49078,140.05672 C 191.39811,189.5161 150.05116,228.68749 99.908889,228.71518 49.81171,228.65448 8.4493098,189.46902 6.3269998,140.05672 L 5.8971798,22.476034 H 99.90663 Z"
       id="path10563-0-6-1-9"
       sodipodi:nodetypes="ccccccc" />
    <path
       style="fill:#ff0000;fill-opacity:1;stroke:#000000;stroke-width:7.99999952;stroke-linecap:round;stroke-linejoin:round;stroke-miterlimit:4;stroke-dasharray:none;stroke-opacity:1"
       d="M 5.5195312 5.5 L 5.8535156 96.851562 L 296.08594 379.38867 L 296.08594 779.03711 C 298.69706 779.51933 301.31894 779.97335 303.94922 780.39844 C 303.97069 780.40191 303.9922 780.40474 304.01367 780.4082 C 306.55467 780.81839 309.10388 781.19844 311.66211 781.55469 C 311.81327 781.57573 311.96402 781.59828 312.11523 781.61914 C 314.59147 781.96074 317.0766 782.27394 319.56836 782.56445 C 319.80346 782.59186 320.03821 782.62149 320.27344 782.64844 C 322.67308 782.92338 325.08068 783.17137 327.49414 783.39844 C 327.8482 783.43174 328.20229 783.46578 328.55664 783.49805 C 330.93233 783.71443 333.31463 783.90664 335.70312 784.07617 C 336.05976 784.10147 336.41652 784.12614 336.77344 784.15039 C 339.17097 784.31337 341.57451 784.45501 343.98438 784.57031 C 344.31354 784.58605 344.64327 784.59843 344.97266 784.61328 C 347.41653 784.7235 349.86629 784.81235 352.32227 784.87305 C 352.58493 784.87953 352.84853 784.88275 353.11133 784.88867 C 355.68182 784.9466 358.25673 784.9832 360.83984 784.98633 C 363.48649 784.98487 366.1264 784.94956 368.75977 784.89062 C 368.92562 784.88692 369.09201 784.88479 369.25781 784.88086 C 371.80092 784.82045 374.33708 784.73064 376.86719 784.61719 C 377.10996 784.60631 377.35305 784.5973 377.5957 784.58594 C 380.03067 784.47182 382.45851 784.33071 384.88086 784.16797 C 385.24993 784.14319 385.61951 784.11965 385.98828 784.09375 C 388.38276 783.92546 390.77079 783.7329 393.15234 783.51758 C 393.47991 783.48798 393.80745 783.45822 394.13477 783.42773 C 396.57908 783.19996 399.01717 782.9487 401.44727 782.67188 C 401.65448 782.64828 401.86125 782.62356 402.06836 782.59961 C 404.58623 782.30833 407.0957 781.99376 409.59766 781.65039 C 409.71173 781.63474 409.82542 781.61732 409.93945 781.60156 C 412.52973 781.24352 415.11301 780.86053 417.68555 780.44727 C 420.33139 780.02223 422.96738 779.5687 425.59375 779.08594 L 425.59375 379.38867 L 715.82617 96.851562 L 716.16016 5.5 L 625.4707 5.5 L 360.83984 263.11133 L 96.212891 5.5 L 5.5195312 5.5 z "
       transform="matrix(0.26458333,0,0,0.26458333,4.436642,21.020824)"
       id="rect3439" />
    <path
       style="fill:none;fill-rule:evenodd;stroke:#000000;stroke-width:2.91041636;stroke-linecap:round;stroke-linejoin:miter;stroke-miterlimit:4;stroke-dasharray:none;stroke-opacity:1"
       inkscape:connector-curvature="0"
       d="M 193.92061,22.476032 193.49078,140.05672 C 191.39811,189.5161 150.05116,228.68749 99.908889,228.71518 49.81171,228.65448 8.4493095,189.46902 6.3269995,140.05672 L 5.8971795,22.476032 H 99.90663 Z"
       id="path10563-0-6-1"
       sodipodi:nodetypes="ccccccc" />
    <g
       id="g3601"
       transform="translate(213.00819)"
       style="stroke:#000000;stroke-opacity:1">
      <path
         sodipodi:nodetypes="csscc"
         inkscape:original-d="m -97.881171,67.239816 c -4.321499,-2.557309 -12.532859,-5.762619 -16.854889,-8.319401 -4.32203,-2.55678 -4.53759,-9.003943 -6.80678,-13.505518 -2.26919,-4.501575 1.94506,-5.402472 2.9172,-8.103311 0.97213,-2.700839 3.81782,-1.440853 5.72634,-2.160883"
         inkscape:path-effect="#path-effect3579"
         inkscape:connector-curvature="0"
         id="path3577"
         d="m -97.881171,67.239816 c -6.291819,-0.961419 -12.265079,-3.909757 -16.854889,-8.319401 -1.86349,-1.790342 -3.50988,-3.824959 -4.72344,-6.106448 -1.21356,-2.28149 -1.98636,-4.816723 -2.08334,-7.39907 -0.0555,-1.479173 0.11211,-2.974625 0.584,-4.377607 0.4719,-1.402982 1.25475,-2.711808 2.3332,-3.725704 1.52552,-1.434207 3.63363,-2.22972 5.72634,-2.160883"
         style="fill:none;stroke:#000000;stroke-width:9.39999962;stroke-linecap:butt;stroke-linejoin:round;stroke-miterlimit:4;stroke-dasharray:none;stroke-opacity:1" />
      <path
         sodipodi:nodetypes="csscc"
         inkscape:original-d="m -97.881171,67.239816 c -4.321499,-2.557309 -12.532859,-5.762619 -16.854889,-8.319401 -4.32203,-2.55678 -4.53759,-9.003943 -6.80678,-13.505518 -2.26919,-4.501575 1.94506,-5.402472 2.9172,-8.103311 0.97213,-2.700839 3.81782,-1.440853 5.72634,-2.160883"
         inkscape:path-effect="#path-effect3579-7"
         inkscape:connector-curvature="0"
         id="path3577-7"
         d="m -97.881171,67.239816 c -6.291819,-0.961419 -12.265079,-3.909757 -16.854889,-8.319401 -1.86349,-1.790342 -3.50988,-3.824959 -4.72344,-6.106448 -1.21356,-2.28149 -1.98636,-4.816723 -2.08334,-7.39907 -0.0555,-1.479173 0.11211,-2.974625 0.584,-4.377607 0.4719,-1.402982 1.25475,-2.711808 2.3332,-3.725704 1.52552,-1.434207 3.63363,-2.22972 5.72634,-2.160883"
         style="fill:none;stroke:#000000;stroke-width:9.39999962;stroke-linecap:butt;stroke-linejoin:round;stroke-miterlimit:4;stroke-dasharray:none;stroke-opacity:1"
         transform="matrix(-1,0,0,1,-226.19859,0)" />
    </g>
    <g
       id="g3650"
       transform="translate(215.19034)">
      <g
         style="stroke:#000000;stroke-opacity:1"
         transform="translate(-53.360442,90.640568)"
         id="g3601-9">
        <path
           style="fill:none;stroke:#000000;stroke-width:9.39999962;stroke-linecap:butt;stroke-linejoin:round;stroke-miterlimit:4;stroke-dasharray:none;stroke-opacity:1"
           d="m -97.881171,67.239816 c -6.291819,-0.961419 -12.265079,-3.909757 -16.854889,-8.319401 -1.86349,-1.790342 -3.50988,-3.824959 -4.72344,-6.106448 -1.21356,-2.28149 -1.98636,-4.816723 -2.08334,-7.39907 -0.0555,-1.479173 0.11211,-2.974625 0.584,-4.377607 0.4719,-1.402982 1.25475,-2.711808 2.3332,-3.725704 1.52552,-1.434207 3.63363,-2.22972 5.72634,-2.160883"
           id="path3577-8"
           inkscape:connector-curvature="0"
           inkscape:path-effect="#path-effect3579-5"
           inkscape:original-d="m -97.881171,67.239816 c -4.321499,-2.557309 -12.532859,-5.762619 -16.854889,-8.319401 -4.32203,-2.55678 -4.53759,-9.003943 -6.80678,-13.505518 -2.26919,-4.501575 1.94506,-5.402472 2.9172,-8.103311 0.97213,-2.700839 3.81782,-1.440853 5.72634,-2.160883"
           sodipodi:nodetypes="csscc" />
        <path
           transform="matrix(-1,0,0,1,-226.19859,0)"
           style="fill:none;stroke:#000000;stroke-width:9.39999962;stroke-linecap:butt;stroke-linejoin:round;stroke-miterlimit:4;stroke-dasharray:none;stroke-opacity:1"
           d="m -97.881171,67.239816 c -6.291819,-0.961419 -12.265079,-3.909757 -16.854889,-8.319401 -1.86349,-1.790342 -3.50988,-3.824959 -4.72344,-6.106448 -1.21356,-2.28149 -1.98636,-4.816723 -2.08334,-7.39907 -0.0555,-1.479173 0.11211,-2.974625 0.584,-4.377607 0.4719,-1.402982 1.25475,-2.711808 2.3332,-3.725704 1.52552,-1.434207 3.63363,-2.22972 5.72634,-2.160883"
           id="path3577-7-0"
           inkscape:connector-curvature="0"
           inkscape:path-effect="#path-effect3579-7-0"
           inkscape:original-d="m -97.881171,67.239816 c -4.321499,-2.557309 -12.532859,-5.762619 -16.854889,-8.319401 -4.32203,-2.55678 -4.53759,-9.003943 -6.80678,-13.505518 -2.26919,-4.501575 1.94506,-5.402472 2.9172,-8.103311 0.97213,-2.700839 3.81782,-1.440853 5.72634,-2.160883"
           sodipodi:nodetypes="csscc" />
      </g>
      <g
         style="stroke:#000000;stroke-opacity:1"
         transform="translate(48.996043,90.640568)"
         id="g3601-8">
        <path
           style="fill:none;stroke:#000000;stroke-width:9.39999962;stroke-linecap:butt;stroke-linejoin:round;stroke-miterlimit:4;stroke-dasharray:none;stroke-opacity:1"
           d="m -97.881171,67.239816 c -6.291819,-0.961419 -12.265079,-3.909757 -16.854889,-8.319401 -1.86349,-1.790342 -3.50988,-3.824959 -4.72344,-6.106448 -1.21356,-2.28149 -1.98636,-4.816723 -2.08334,-7.39907 -0.0555,-1.479173 0.11211,-2.974625 0.584,-4.377607 0.4719,-1.402982 1.25475,-2.711808 2.3332,-3.725704 1.52552,-1.434207 3.63363,-2.22972 5.72634,-2.160883"
           id="path3577-80"
           inkscape:connector-curvature="0"
           inkscape:path-effect="#path-effect3579-8"
           inkscape:original-d="m -97.881171,67.239816 c -4.321499,-2.557309 -12.532859,-5.762619 -16.854889,-8.319401 -4.32203,-2.55678 -4.53759,-9.003943 -6.80678,-13.505518 -2.26919,-4.501575 1.94506,-5.402472 2.9172,-8.103311 0.97213,-2.700839 3.81782,-1.440853 5.72634,-2.160883"
           sodipodi:nodetypes="csscc" />
        <path
           transform="matrix(-1,0,0,1,-226.19859,0)"
           style="fill:none;stroke:#000000;stroke-width:9.39999962;stroke-linecap:butt;stroke-linejoin:round;stroke-miterlimit:4;stroke-dasharray:none;stroke-opacity:1"
           d="m -97.881171,67.239816 c -6.291819,-0.961419 -12.265079,-3.909757 -16.854889,-8.319401 -1.86349,-1.790342 -3.50988,-3.824959 -4.72344,-6.106448 -1.21356,-2.28149 -1.98636,-4.816723 -2.08334,-7.39907 -0.0555,-1.479173 0.11211,-2.974625 0.584,-4.377607 0.4719,-1.402982 1.25475,-2.711808 2.3332,-3.725704 1.52552,-1.434207 3.63363,-2.22972 5.72634,-2.160883"
           id="path3577-7-6"
           inkscape:connector-curvature="0"
           inkscape:path-effect="#path-effect3579-7-6"
           inkscape:original-d="m -97.881171,67.239816 c -4.321499,-2.557309 -12.532859,-5.762619 -16.854889,-8.319401 -4.32203,-2.55678 -4.53759,-9.003943 -6.80678,-13.505518 -2.26919,-4.501575 1.94506,-5.402472 2.9172,-8.103311 0.97213,-2.700839 3.81782,-1.440853 5.72634,-2.160883"
           sodipodi:nodetypes="csscc" />
      </g>
    </g>
  </g>
</svg>

<svg xmlns="http://www.w3.org/2000/svg" width="721.68" height="790.487" viewBox="0 0 190.945 209.15"><path style="fill:#fff;fill-rule:evenodd;stroke:none;stroke-width:2.91041636;stroke-linecap:round;stroke-linejoin:miter;stroke-miterlimit:4;stroke-dasharray:none;stroke-opacity:1" d="m193.92 22.476-.43 117.58c-2.092 49.46-43.439 88.631-93.581 88.66-50.097-.062-91.46-39.247-93.582-88.66l-.43-117.58h94.01z" transform="translate(-4.437 -21.02)"/><path style="fill:red;fill-opacity:1;stroke:#000;stroke-width:7.99999952;stroke-linecap:round;stroke-linejoin:round;stroke-miterlimit:4;stroke-dasharray:none;stroke-opacity:1" d="m5.52 5.5.334 91.352 290.232 282.537v399.648c2.611.482 5.233.936 7.863 1.361l.065.01c2.54.41 5.09.79 7.648 1.147.151.02.302.043.453.064 2.476.342 4.962.655 7.453.945l.705.084c2.4.275 4.808.523 7.221.75a359.02 359.02 0 0 0 9.28.752c2.397.163 4.8.305 7.21.42.33.016.66.028.989.043 2.444.11 4.893.2 7.35.26.262.007.526.01.788.016 2.57.058 5.146.094 7.729.097 2.646-.001 5.286-.036 7.92-.095l.498-.01c2.543-.06 5.08-.15 7.61-.264l.728-.031c2.435-.114 4.863-.255 7.285-.418.369-.025.739-.048 1.107-.074a359.364 359.364 0 0 0 15.46-1.422l.62-.072c2.518-.292 5.028-.606 7.53-.95.114-.015.227-.033.341-.048a356.641 356.641 0 0 0 15.654-2.516V379.389L715.827 96.852 716.16 5.5h-90.69L360.84 263.111 96.213 5.5H5.52z" transform="scale(.26458)"/><path style="fill:none;fill-rule:evenodd;stroke:#000;stroke-width:2.91041636;stroke-linecap:round;stroke-linejoin:miter;stroke-miterlimit:4;stroke-dasharray:none;stroke-opacity:1" d="m193.92 22.476-.43 117.58c-2.092 49.46-43.439 88.631-93.581 88.66-50.097-.062-91.46-39.247-93.582-88.66l-.43-117.58h94.01z" transform="translate(-4.437 -21.02)"/><g style="stroke:#000;stroke-opacity:1"><path d="M-97.881 67.24a31.346 31.346 0 0 1-16.855-8.32c-1.864-1.79-3.51-3.825-4.723-6.106-1.214-2.282-1.987-4.817-2.084-7.4-.055-1.478.112-2.974.584-4.377.472-1.403 1.255-2.712 2.333-3.725a8.074 8.074 0 0 1 5.727-2.161" style="fill:none;stroke:#000;stroke-width:9.39999962;stroke-linecap:butt;stroke-linejoin:round;stroke-miterlimit:4;stroke-dasharray:none;stroke-opacity:1" transform="translate(208.572 -21.02)"/><path d="M-97.881 67.24a31.346 31.346 0 0 1-16.855-8.32c-1.864-1.79-3.51-3.825-4.723-6.106-1.214-2.282-1.987-4.817-2.084-7.4-.055-1.478.112-2.974.584-4.377.472-1.403 1.255-2.712 2.333-3.725a8.074 8.074 0 0 1 5.727-2.161" style="fill:none;stroke:#000;stroke-width:9.39999962;stroke-linecap:butt;stroke-linejoin:round;stroke-miterlimit:4;stroke-dasharray:none;stroke-opacity:1" transform="matrix(-1 0 0 1 -17.627 -21.02)"/></g><g style="stroke:#000;stroke-opacity:1"><path style="fill:none;stroke:#000;stroke-width:9.39999962;stroke-linecap:butt;stroke-linejoin:round;stroke-miterlimit:4;stroke-dasharray:none;stroke-opacity:1" d="M-97.881 67.24a31.346 31.346 0 0 1-16.855-8.32c-1.864-1.79-3.51-3.825-4.723-6.106-1.214-2.282-1.987-4.817-2.084-7.4-.055-1.478.112-2.974.584-4.377.472-1.403 1.255-2.712 2.333-3.725a8.074 8.074 0 0 1 5.727-2.161" transform="translate(157.393 69.62)"/><path transform="matrix(-1 0 0 1 -68.805 69.62)" style="fill:none;stroke:#000;stroke-width:9.39999962;stroke-linecap:butt;stroke-linejoin:round;stroke-miterlimit:4;stroke-dasharray:none;stroke-opacity:1" d="M-97.881 67.24a31.346 31.346 0 0 1-16.855-8.32c-1.864-1.79-3.51-3.825-4.723-6.106-1.214-2.282-1.987-4.817-2.084-7.4-.055-1.478.112-2.974.584-4.377.472-1.403 1.255-2.712 2.333-3.725a8.074 8.074 0 0 1 5.727-2.161"/></g><g style="stroke:#000;stroke-opacity:1"><path style="fill:none;stroke:#000;stroke-width:9.39999962;stroke-linecap:butt;stroke-linejoin:round;stroke-miterlimit:4;stroke-dasharray:none;stroke-opacity:1" d="M-97.881 67.24a31.346 31.346 0 0 1-16.855-8.32c-1.864-1.79-3.51-3.825-4.723-6.106-1.214-2.282-1.987-4.817-2.084-7.4-.055-1.478.112-2.974.584-4.377.472-1.403 1.255-2.712 2.333-3.725a8.074 8.074 0 0 1 5.727-2.161" transform="translate(259.75 69.62)"/><path transform="matrix(-1 0 0 1 33.551 69.62)" style="fill:none;stroke:#000;stroke-width:9.39999962;stroke-linecap:butt;stroke-linejoin:round;stroke-miterlimit:4;stroke-dasharray:none;stroke-opacity:1" d="M-97.881 67.24a31.346 31.346 0 0 1-16.855-8.32c-1.864-1.79-3.51-3.825-4.723-6.106-1.214-2.282-1.987-4.817-2.084-7.4-.055-1.478.112-2.974.584-4.377.472-1.403 1.255-2.712 2.333-3.725a8.074 8.074 0 0 1 5.727-2.161"/></g></svg>
